Catalina-light/apps/scalable/sudoku.svg

<?xml version="1.0" encoding="UTF-8" standalone="no"?>
<!-- Created with Inkscape (http://www.inkscape.org/) -->

<svg
   xmlns:dc="http://purl.org/dc/elements/1.1/"
   xmlns:cc="http://creativecommons.org/ns#"
   xmlns:rdf="http://www.w3.org/1999/02/22-rdf-syntax-ns#"
   xmlns:svg="http://www.w3.org/2000/svg"
   xmlns="http://www.w3.org/2000/svg"
   xmlns:xlink="http://www.w3.org/1999/xlink"
   xmlns:sodipodi="http://sodipodi.sourceforge.net/DTD/sodipodi-0.dtd"
   xmlns:inkscape="http://www.inkscape.org/namespaces/inkscape"
   version="1.1"
   id="svg2"
   width="128"
   height="128"
   viewBox="0 0 128 128"
   sodipodi:docname="sudoku.svg"
   inkscape:version="0.92.3 (2405546, 2018-03-11)">
  <metadata
     id="metadata8">
    <rdf:RDF>
      <cc:Work
         rdf:about="">
        <dc:format>image/svg+xml</dc:format>
        <dc:type
           rdf:resource="http://purl.org/dc/dcmitype/StillImage" />
        <dc:title></dc:title>
      </cc:Work>
    </rdf:RDF>
  </metadata>
  <defs
     id="defs6">
    <linearGradient
       inkscape:collect="always"
       id="linearGradient4956">
      <stop
         style="stop-color:#d38a0e;stop-opacity:1"
         offset="0"
         id="stop4952" />
      <stop
         style="stop-color:#f4aa75;stop-opacity:1"
         offset="1"
         id="stop4954" />
    </linearGradient>
    <linearGradient
       id="linearGradient3866">
      <stop
         id="stop3868"
         offset="0"
         style="stop-color:#000000;stop-opacity:0.52083331" />
      <stop
         id="stop3870"
         offset="1"
         style="stop-color:#2883c3;stop-opacity:0;" />
    </linearGradient>
    <linearGradient
       id="linearGradient3874">
      <stop
         id="stop3876"
         offset="0"
         style="stop-color:#000d0e;stop-opacity:0.84105963;" />
      <stop
         id="stop3878"
         offset="1"
         style="stop-color:#000000;stop-opacity:0;" />
    </linearGradient>
    <clipPath
       id="clipPath892"
       clipPathUnits="userSpaceOnUse">
      <path
         inkscape:connector-curvature="0"
         id="path894"
         d="M 38.524123,20.232391 V 51.2388 h 3.597154 V 20.232391 Z M 14.125746,21.0025 V 52.010565 H 17.7229 V 21.0025 Z M 5.9924018,21.259203 V 52.267267 H 9.591212 V 21.259203 Z m 24.3983772,1.37129 v 31.006409 h 3.597153 V 22.630493 Z m -20.330877,1.626338 v 31.008065 h 3.597154 V 24.256831 Z m 24.396721,0.08612 v 31.008065 h 3.598809 V 24.342951 Z M 1.9265577,25.798705 V 56.80677 H 5.5237118 V 25.798705 Z m 16.2650323,0.08612 v 31.008064 h 3.597155 V 25.884825 Z m 24.398377,0 v 31.008064 h 3.597154 V 25.884825 Z m -16.265033,2.22752 v 31.006408 h 3.597155 V 28.112345 Z M 22.25909,30.76715 v 31.008065 h 3.597155 V 30.76715 Z"
         style="fill:#ffffff;fill-opacity:0.25520833;stroke:none;stroke-width:1.52630627;stroke-linecap:round;stroke-linejoin:round;stroke-miterlimit:4;stroke-dasharray:none;stroke-opacity:1" />
    </clipPath>
    <clipPath
       id="clipPath846"
       clipPathUnits="userSpaceOnUse">
      <rect
         style="fill:#f16e5d;fill-opacity:1;stroke:none;stroke-width:0.19905733;stroke-linejoin:round;stroke-miterlimit:4;stroke-dasharray:none;stroke-opacity:0"
         id="rect848"
         width="43"
         height="43"
         x="2"
         y="3"
         ry="1.4527029" />
    </clipPath>
    <clipPath
       clipPathUnits="userSpaceOnUse"
       id="clipPath838">
      <rect
         style="fill:#ffffff;fill-opacity:1;stroke:none;stroke-width:0.16189085;stroke-linejoin:round;stroke-miterlimit:4;stroke-dasharray:none;stroke-opacity:0"
         id="rect840"
         width="38.023293"
         height="32.164406"
         x="4.9372187"
         y="7.8309994"
         ry="1.0866355" />
    </clipPath>
    <clipPath
       clipPathUnits="userSpaceOnUse"
       id="clipPath846-3">
      <rect
         ry="1.4527029"
         y="3"
         x="2"
         height="43"
         width="43"
         id="rect848-6"
         style="fill:#f16e5d;fill-opacity:1;stroke:none;stroke-width:0.19905733;stroke-linejoin:round;stroke-miterlimit:4;stroke-dasharray:none;stroke-opacity:0" />
    </clipPath>
    <clipPath
       id="clipPath838-0"
       clipPathUnits="userSpaceOnUse">
      <rect
         ry="1.0866355"
         y="7.8309994"
         x="4.9372187"
         height="32.164406"
         width="38.023293"
         id="rect840-6"
         style="fill:#ffffff;fill-opacity:1;stroke:none;stroke-width:0.16189085;stroke-linejoin:round;stroke-miterlimit:4;stroke-dasharray:none;stroke-opacity:0" />
    </clipPath>
    <clipPath
       id="clipPath2030"
       clipPathUnits="userSpaceOnUse">
      <path
         inkscape:connector-curvature="0"
         style="opacity:1;fill:#999999;fill-opacity:1;fill-rule:nonzero;stroke:none;stroke-width:34.01574707;stroke-linecap:round;stroke-linejoin:bevel;stroke-miterlimit:4;stroke-dasharray:none;stroke-dashoffset:0;stroke-opacity:1"
         d="m 34.992004,17.334475 a 7,7 0 0 1 -7.313714,6.658128 7,7 0 0 1 -6.671469,-7.301546 7,7 0 0 1 7.289354,-6.684788 7,7 0 0 1 6.698086,7.277138"
         id="path2032" />
    </clipPath>
    <linearGradient
       id="linearGradient3866-3">
      <stop
         style="stop-color:#818181;stop-opacity:1;"
         offset="0"
         id="stop3868-7" />
      <stop
         style="stop-color:#7c5c0f;stop-opacity:1"
         offset="1"
         id="stop3870-5" />
    </linearGradient>
    <linearGradient
       id="linearGradient3853">
      <stop
         id="stop3855"
         offset="0"
         style="stop-color:#ffffff;stop-opacity:1;" />
      <stop
         id="stop3857"
         offset="1"
         style="stop-color:#ffffff;stop-opacity:0;" />
    </linearGradient>
    <linearGradient
       id="linearGradient5060">
      <stop
         offset="0"
         id="stop7" />
      <stop
         offset="1"
         stop-opacity="0"
         id="stop9" />
    </linearGradient>
    <linearGradient
       gradientUnits="userSpaceOnUse"
       id="linearGradient3127"
       x2="0"
       y1="38.718601"
       y2="45.761669">
      <stop
         offset="0"
         stop-opacity="0"
         id="stop12" />
      <stop
         offset=".5"
         id="stop14" />
      <stop
         offset="1"
         stop-opacity="0"
         id="stop16" />
    </linearGradient>
    <linearGradient
       gradientUnits="userSpaceOnUse"
       id="linearGradient3157-5"
       x1="-42.696152"
       x2="-5.8431101"
       gradientTransform="matrix(0,-1,-1,0,1.6172605e-8,-1.5826913e-8)">
      <stop
         offset="0"
         stop-color="#fff"
         id="stop19" />
      <stop
         offset="1"
         stop-color="#cdcdcd"
         id="stop21" />
    </linearGradient>
    <linearGradient
       gradientUnits="userSpaceOnUse"
       id="linearGradient998"
       x1="6"
       x2="42"
       y2="-23"
       y1="-23">
      <stop
         offset="0"
         stop-color="#fff"
         id="stop24" />
      <stop
         offset="1"
         stop-color="#fff"
         stop-opacity="0"
         id="stop26"
         style="stop-color:#ffffff;stop-opacity:0.5" />
    </linearGradient>
    <radialGradient
       cx="605.71429"
       cy="486.64789"
       gradientTransform="matrix(0.062142,0,0,0.029001,1.636502,28.085503)"
       gradientUnits="userSpaceOnUse"
       id="radialGradient3129"
       r="117.14286"
       xlink:href="#linearGradient5060" />
    <radialGradient
       cx="605.71429"
       cy="486.64789"
       gradientTransform="matrix(-0.062142,0,0,0.029001,46.53201,28.085503)"
       gradientUnits="userSpaceOnUse"
       id="radialGradient3131"
       r="117.14286"
       xlink:href="#linearGradient5060" />
    <clipPath
       clipPathUnits="userSpaceOnUse"
       id="clipPath846-6">
      <rect
         ry="1.4527029"
         y="3"
         x="2"
         height="43"
         width="43"
         id="rect848-1"
         style="fill:#f16e5d;fill-opacity:1;stroke:none;stroke-width:0.19905733;stroke-linejoin:round;stroke-miterlimit:4;stroke-dasharray:none;stroke-opacity:0" />
    </clipPath>
    <clipPath
       id="clipPath838-2"
       clipPathUnits="userSpaceOnUse">
      <rect
         ry="1.0866355"
         y="7.8309994"
         x="4.9372187"
         height="32.164406"
         width="38.023293"
         id="rect840-9"
         style="fill:#ffffff;fill-opacity:1;stroke:none;stroke-width:0.16189085;stroke-linejoin:round;stroke-miterlimit:4;stroke-dasharray:none;stroke-opacity:0" />
    </clipPath>
    <clipPath
       id="clipPath846-3-3"
       clipPathUnits="userSpaceOnUse">
      <rect
         style="fill:#f16e5d;fill-opacity:1;stroke:none;stroke-width:0.19905733;stroke-linejoin:round;stroke-miterlimit:4;stroke-dasharray:none;stroke-opacity:0"
         id="rect848-6-1"
         width="43"
         height="43"
         x="2"
         y="3"
         ry="1.4527029" />
    </clipPath>
    <clipPath
       clipPathUnits="userSpaceOnUse"
       id="clipPath838-0-9">
      <rect
         style="fill:#ffffff;fill-opacity:1;stroke:none;stroke-width:0.16189085;stroke-linejoin:round;stroke-miterlimit:4;stroke-dasharray:none;stroke-opacity:0"
         id="rect840-6-4"
         width="38.023293"
         height="32.164406"
         x="4.9372187"
         y="7.8309994"
         ry="1.0866355" />
    </clipPath>
    <clipPath
       clipPathUnits="userSpaceOnUse"
       id="clipPath2030-7">
      <path
         id="path2032-8"
         d="m 34.992004,17.334475 a 7,7 0 0 1 -7.313714,6.658128 7,7 0 0 1 -6.671469,-7.301546 7,7 0 0 1 7.289354,-6.684788 7,7 0 0 1 6.698086,7.277138"
         style="opacity:1;fill:#999999;fill-opacity:1;fill-rule:nonzero;stroke:none;stroke-width:34.01574707;stroke-linecap:round;stroke-linejoin:bevel;stroke-miterlimit:4;stroke-dasharray:none;stroke-dashoffset:0;stroke-opacity:1"
         inkscape:connector-curvature="0" />
    </clipPath>
    <clipPath
       clipPathUnits="userSpaceOnUse"
       id="clipPath846-69">
      <rect
         ry="1.4527029"
         y="3"
         x="2"
         height="43"
         width="43"
         id="rect848-3"
         style="fill:#f16e5d;fill-opacity:1;stroke:none;stroke-width:0.19905733;stroke-linejoin:round;stroke-miterlimit:4;stroke-dasharray:none;stroke-opacity:0" />
    </clipPath>
    <clipPath
       id="clipPath838-7"
       clipPathUnits="userSpaceOnUse">
      <rect
         ry="1.0866355"
         y="7.8309994"
         x="4.9372187"
         height="32.164406"
         width="38.023293"
         id="rect840-4"
         style="fill:#ffffff;fill-opacity:1;stroke:none;stroke-width:0.16189085;stroke-linejoin:round;stroke-miterlimit:4;stroke-dasharray:none;stroke-opacity:0" />
    </clipPath>
    <clipPath
       id="clipPath846-3-5"
       clipPathUnits="userSpaceOnUse">
      <rect
         style="fill:#f16e5d;fill-opacity:1;stroke:none;stroke-width:0.19905733;stroke-linejoin:round;stroke-miterlimit:4;stroke-dasharray:none;stroke-opacity:0"
         id="rect848-6-2"
         width="43"
         height="43"
         x="2"
         y="3"
         ry="1.4527029" />
    </clipPath>
    <clipPath
       clipPathUnits="userSpaceOnUse"
       id="clipPath838-0-5">
      <rect
         style="fill:#ffffff;fill-opacity:1;stroke:none;stroke-width:0.16189085;stroke-linejoin:round;stroke-miterlimit:4;stroke-dasharray:none;stroke-opacity:0"
         id="rect840-6-47"
         width="38.023293"
         height="32.164406"
         x="4.9372187"
         y="7.8309994"
         ry="1.0866355" />
    </clipPath>
    <clipPath
       clipPathUnits="userSpaceOnUse"
       id="clipPath2030-4">
      <path
         id="path2032-4"
         d="m 34.992004,17.334475 a 7,7 0 0 1 -7.313714,6.658128 7,7 0 0 1 -6.671469,-7.301546 7,7 0 0 1 7.289354,-6.684788 7,7 0 0 1 6.698086,7.277138"
         style="opacity:1;fill:#999999;fill-opacity:1;fill-rule:nonzero;stroke:none;stroke-width:34.01574707;stroke-linecap:round;stroke-linejoin:bevel;stroke-miterlimit:4;stroke-dasharray:none;stroke-dashoffset:0;stroke-opacity:1"
         inkscape:connector-curvature="0" />
    </clipPath>
    <clipPath
       clipPathUnits="userSpaceOnUse"
       id="clipPath2030-4-1">
      <path
         id="path2032-4-4"
         d="m 34.992004,17.334475 a 7,7 0 0 1 -7.313714,6.658128 7,7 0 0 1 -6.671469,-7.301546 7,7 0 0 1 7.289354,-6.684788 7,7 0 0 1 6.698086,7.277138"
         style="opacity:1;fill:#999999;fill-opacity:1;fill-rule:nonzero;stroke:none;stroke-width:34.01574707;stroke-linecap:round;stroke-linejoin:bevel;stroke-miterlimit:4;stroke-dasharray:none;stroke-dashoffset:0;stroke-opacity:1"
         inkscape:connector-curvature="0" />
    </clipPath>
    <linearGradient
       id="linearGradient3866-2">
      <stop
         style="stop-color:#818181;stop-opacity:1;"
         offset="0"
         id="stop3868-6" />
      <stop
         style="stop-color:#6a2543;stop-opacity:1;"
         offset="1"
         id="stop3870-6" />
    </linearGradient>
    <linearGradient
       gradientUnits="userSpaceOnUse"
       id="linearGradient3127-4"
       x2="0"
       y1="38.718601"
       y2="45.761669">
      <stop
         offset="0"
         stop-opacity="0"
         id="stop12-8" />
      <stop
         offset=".5"
         id="stop14-7" />
      <stop
         offset="1"
         stop-opacity="0"
         id="stop16-1" />
    </linearGradient>
    <linearGradient
       gradientUnits="userSpaceOnUse"
       id="linearGradient3157-5-7"
       x1="-42.696152"
       x2="-5.8431101"
       gradientTransform="matrix(0,-1,-1,0,1.6172605e-8,-1.5826913e-8)">
      <stop
         offset="0"
         stop-color="#fff"
         id="stop19-2" />
      <stop
         offset="1"
         stop-color="#cdcdcd"
         id="stop21-7" />
    </linearGradient>
    <radialGradient
       cx="605.71429"
       cy="486.64789"
       gradientTransform="matrix(0.062142,0,0,0.029001,1.636502,28.085503)"
       gradientUnits="userSpaceOnUse"
       id="radialGradient3129-6"
       r="117.14286"
       xlink:href="#linearGradient5060" />
    <radialGradient
       cx="605.71429"
       cy="486.64789"
       gradientTransform="matrix(-0.062142,0,0,0.029001,46.53201,28.085503)"
       gradientUnits="userSpaceOnUse"
       id="radialGradient3131-1"
       r="117.14286"
       xlink:href="#linearGradient5060" />
    <linearGradient
       inkscape:collect="always"
       xlink:href="#linearGradient4956"
       id="linearGradient4958"
       x1="91.220078"
       y1="110.12522"
       x2="39.110519"
       y2="3.1635025"
       gradientUnits="userSpaceOnUse"
       gradientTransform="rotate(-45,281.30311,911.07014)" />
    <filter
       inkscape:collect="always"
       style="color-interpolation-filters:sRGB"
       id="filter4978"
       x="-0.3084"
       width="1.6168"
       y="-0.3084"
       height="1.6168">
      <feGaussianBlur
         inkscape:collect="always"
         stdDeviation="8.6745029"
         id="feGaussianBlur4980" />
    </filter>
  </defs>
  <sodipodi:namedview
     pagecolor="#ffffff"
     bordercolor="#666666"
     borderopacity="1"
     objecttolerance="10"
     gridtolerance="10"
     guidetolerance="10"
     inkscape:pageopacity="0"
     inkscape:pageshadow="2"
     inkscape:window-width="1360"
     inkscape:window-height="718"
     id="namedview4"
     showgrid="false"
     inkscape:zoom="3.2815478"
     inkscape:cx="48.293673"
     inkscape:cy="65.134583"
     inkscape:window-x="0"
     inkscape:window-y="26"
     inkscape:window-maximized="1"
     inkscape:current-layer="g992"
     showguides="false" />
  <g
     id="g992"
     transform="translate(535.09481,-402.08643)">
    <g
       id="g4985"
       transform="matrix(0.91708028,0,0,0.91708028,-38.800665,40.180575)">
      <path
         inkscape:connector-curvature="0"
         id="rect4901"
         d="m -535.98265,449.55353 16.64325,16.64325 -16.64325,16.64325 47.73385,47.73385 16.64325,-16.64325 16.64325,16.64325 47.73385,-47.73385 -16.64325,-16.64325 16.64325,-16.64325 -47.73385,-47.73385 -16.64325,16.64325 -16.64325,-16.64325 z"
         style="opacity:1;fill:url(#linearGradient4958);fill-opacity:1;stroke:none;stroke-width:2.64566922;stroke-linecap:round;stroke-linejoin:round;stroke-miterlimit:4;stroke-dasharray:none;stroke-dashoffset:0;stroke-opacity:1" />
      <path
         inkscape:connector-curvature="0"
         style="opacity:1;fill:#c96110;fill-opacity:1;stroke:none;stroke-width:2.64566922;stroke-linecap:round;stroke-linejoin:round;stroke-miterlimit:4;stroke-dasharray:none;stroke-dashoffset:0;stroke-opacity:1;filter:url(#filter4978)"
         d="M 29.736328,30.357422 V 51.359375 H 50.650391 V 30.357422 Z m 23.914063,0 V 51.359375 H 73.064453 V 30.357422 Z m 22.414062,0 V 51.359375 H 97.242188 V 30.357422 Z M 29.736328,54.359375 V 73.861328 H 50.650391 V 54.359375 Z m 23.914063,0 V 73.861328 H 73.064453 V 54.359375 Z m 22.414062,0 V 73.861328 H 97.242188 V 54.359375 Z M 29.736328,76.861328 V 97.863281 H 50.650391 V 76.861328 Z m 23.914063,0 V 97.863281 H 73.064453 V 76.861328 Z m 22.414062,0 V 97.863281 H 97.242188 V 76.861328 Z"
         transform="rotate(-45,281.30311,911.07014)"
         id="path4960" />
      <path
         inkscape:connector-curvature="0"
         id="rect4921"
         d="m -519.3394,466.19678 14.85062,14.85063 14.78848,-14.78848 -14.85063,-14.85062 z m 16.90979,-16.90979 14.85063,14.85062 13.72781,-13.72781 -14.85062,-14.85063 z m 15.84914,-15.84914 14.85062,14.85062 14.97492,-14.97492 -14.85062,-14.85062 z m -15.78699,49.73088 13.78996,13.78996 14.78848,-14.78848 -13.78996,-13.78996 z m 16.9098,-16.9098 13.78996,13.78996 13.72782,-13.72781 -13.78997,-13.78996 z m 15.84913,-15.84913 13.78997,13.78996 14.97492,-14.97492 -13.78997,-13.78996 z m -16.84765,48.67021 14.85063,14.85062 14.78847,-14.78847 -14.85062,-14.85063 z m 16.9098,-16.9098 14.85062,14.85063 13.72782,-13.72782 -14.85062,-14.85062 z m 15.84914,-15.84913 14.85062,14.85062 14.97492,-14.97492 -14.85062,-14.85062 z"
         style="opacity:1;fill:#ffffff;fill-opacity:1;stroke:none;stroke-width:2.64566922;stroke-linecap:round;stroke-linejoin:round;stroke-miterlimit:4;stroke-dasharray:none;stroke-dashoffset:0;stroke-opacity:1" />
    </g>
  </g>
</svg>

<svg width="128" height="128" version="1.1" viewBox="0 0 128 128" xmlns="http://www.w3.org/2000/svg">
<defs>
<linearGradient id="linearGradient4958" x1="91.22" x2="39.111" y1="110.13" y2="3.1635" gradientTransform="rotate(-45 281.3 911.07)" gradientUnits="userSpaceOnUse"/>
<filter id="filter4978" x="-.3084" y="-.3084" width="1.6168" height="1.6168" color-interpolation-filters="sRGB">
<feGaussianBlur stdDeviation="8.6745029"/>
</filter>
</defs>
<g transform="translate(535.09 -402.09)">
<g transform="matrix(.91708 0 0 .91708 -38.801 40.181)">
<path d="m-535.98 449.55 16.643 16.643-16.643 16.643 47.734 47.734 16.643-16.643 16.643 16.643 47.734-47.734-16.643-16.643 16.643-16.643-47.734-47.734-16.643 16.643-16.643-16.643z" fill="url(#linearGradient4958)"/>
<path transform="rotate(-45 281.3 911.07)" d="m29.736 30.357v21.002h20.914v-21.002zm23.914 0v21.002h19.414v-21.002zm22.414 0v21.002h21.178v-21.002zm-46.328 24.002v19.502h20.914v-19.502zm23.914 0v19.502h19.414v-19.502zm22.414 0v19.502h21.178v-19.502zm-46.328 22.502v21.002h20.914v-21.002zm23.914 0v21.002h19.414v-21.002zm22.414 0v21.002h21.178v-21.002z" fill="#c96110" filter="url(#filter4978)"/>
<path d="m-519.34 466.2 14.851 14.851 14.788-14.788-14.851-14.851zm16.91-16.91 14.851 14.851 13.728-13.728-14.851-14.851zm15.849-15.849 14.851 14.851 14.975-14.975-14.851-14.851zm-15.787 49.731 13.79 13.79 14.788-14.788-13.79-13.79zm16.91-16.91 13.79 13.79 13.728-13.728-13.79-13.79zm15.849-15.849 13.79 13.79 14.975-14.975-13.79-13.79zm-16.848 48.67 14.851 14.851 14.788-14.788-14.851-14.851zm16.91-16.91 14.851 14.851 13.728-13.728-14.851-14.851zm15.849-15.849 14.851 14.851 14.975-14.975-14.851-14.851z" fill="#fff"/>
</g>
</g>
</svg>
